X: 77
T: Sibao langong
%%abc-version 2.0
%%abcx-abcm2ps-target-version 5.9.1 (29 Sep 2008)
%%abc-creator hum2abc beta
%%abcx-conversion-date 2013/10/02 07:52:29
%%abc-edited-by Helmut Schaffrath
%%humdrum-veritas 2893400290
%%humdrum-veritas-data 1334880331
%%continueall 1
%%barnumbers 0
L: 1/8
M: 2/4
K: G
cc2A [I:setbarnb 1]| 
A G E D | 
d3e | 
c3d | 
ed2d | 
d2c A | 
G A E D | 
G4 | 
GG2A | 
d2d e | 
cc2d | 
A G E D | 
cc2A | 
G A G E | 
D3E | 
D2z2 |]  



